picto/gondola-lift-left-framed.svg

<svg class="color-immutable" width="30" height="30" viewBox="0 0 30 30" fill="none" xmlns="http://www.w3.org/2000/svg"><path d="M30 0H0V30H30V0Z" fill="#2D327D"/><path d="M25.5 3C26.325 3 27 3.675 27 4.5V25.5C27 26.325 26.325 27 25.5 27H4.5C3.675 27 3 26.325 3 25.5V4.5C3 3.675 3.675 3 4.5 3H25.5ZM25.5 2.625H4.5C3.46613 2.625 2.625 3.46613 2.625 4.5V25.5C2.625 26.5339 3.46613 27.375 4.5 27.375H25.5C26.5339 27.375 27.375 26.5339 27.375 25.5V4.5C27.375 3.46613 26.5339 2.625 25.5 2.625Z" fill="white"/><path d="M21.7128 8.61885L24 9.0003V9.6837L21.7128 9.30315V8.61885Z" fill="white"/><path d="M20.2875 8.3814V9.06578L6 6.68513V6L20.2875 8.3814Z" fill="white"/><path d="M18.7506 14.2511C18.3362 14.2511 18 14.5873 18 15.0011V19.3525C18 19.4509 18.0093 19.5494 18.0297 19.6459L18.7793 23.3975C18.85 23.7485 19.1575 24 19.515 24H22.4849C22.8425 24 23.1508 23.7485 23.2205 23.3975L23.9711 19.6459C23.9897 19.5494 24 19.4509 24 19.3525V15.0011C24 14.5873 23.6646 14.2511 23.2502 14.2511H21.3375V7.72635H20.6623V14.2511H18.7506ZM18.7506 19.1261V15.3763C18.7506 15.1693 18.9177 15.0011 19.1249 15.0011H22.8752C23.0813 15.0011 23.2495 15.1693 23.2495 15.3763V19.1261C23.2495 19.3332 23.0813 19.5002 22.8752 19.5002H19.1249C18.9177 19.5001 18.7506 19.3331 18.7506 19.1261Z" fill="white"/></svg>

<svg class="color-immutable" width="30" height="30" viewBox="0 0 30 30" fill="none" xmlns="http://www.w3.org/2000/svg"><g clip-path="url(#a)"><path d="M30 0H0v30h30V0Z" fill="#2D327D"/><path d="M25.5 3c.825 0 1.5.675 1.5 1.5v21c0 .825-.675 1.5-1.5 1.5h-21c-.825 0-1.5-.675-1.5-1.5v-21C3 3.675 3.675 3 4.5 3h21Zm0-.375h-21A1.877 1.877 0 0 0 2.625 4.5v21c0 1.034.841 1.875 1.875 1.875h21a1.877 1.877 0 0 0 1.875-1.875v-21A1.877 1.877 0 0 0 25.5 2.625Z" fill="#fff"/><path d="M21.713 8.619 24 9v.684l-2.287-.38v-.685ZM20.288 8.381v.685L6 6.686V6l14.288 2.381Z" fill="#fff"/><path d="M18.75 14.251a.75.75 0 0 0-.75.75v4.351c0 .099.01.197.03.294l.75 3.752a.75.75 0 0 0 .735.602h2.97a.749.749 0 0 0 .736-.602l.75-3.752c.019-.097.029-.195.029-.294v-4.35a.75.75 0 0 0-.75-.75h-1.913V7.725h-.675v6.525h-1.911Zm0 4.875v-3.75c0-.207.168-.375.375-.375h3.75c.206 0 .375.168.375.375v3.75a.374.374 0 0 1-.375.374h-3.75a.374.374 0 0 1-.374-.374Z" fill="#fff"/></g><defs><clipPath id="a"><path fill="#fff" d="M0 0h30v30H0z"/></clipPath></defs></svg>
